X: 1685
T: The Northern Troupe
M:2/4
L:1/16
B:O'Neill's 1685
N:"collected by F.O'Neill"
K:G
(3ABc \
| d>BG>B d>Be>B | d>cB>cE2z2 | c>AF>Ac>Ad>A | c>BA>BD4 (3ABc |
| d>BG>Bd>Bg>d | f>e^d>eA2A>G | F>Gg>ed>cE>F | G2g2G2 :|
|: B-d \
| g2d>cB>GG2 | G>AB>GA>B>A | G>AB>cd>Bd>g | f>ga>f g>de>f |
| g2d>cB>GG2 | G>AB>GA2B>A | G>AB>cd2g2 | f>ga>fg2 :|


